X: 164
T: No_71_(a).krn
N: Derived from No_71_(a).krn
%%abc-version 2.0
%%abcx-abcm2ps-target-version 5.9.1 (29 Sep 2008)
%%abc-creator hum2abc beta
%%abcx-conversion-date 2019/03/15 08:29:13
%%humdrum-veritas 2831156662
%%humdrum-veritas-data 3599772085
%%linebreak <none>
%%barnumbers 0
L: 1/8
M: 4/4
K: Bb clef=bass
[K:clef=bass][M:4/4]FFF7/F/EC | 
CCC7/C/B,_A, | 
B,B,B,7/C/CB, | 
B,B,B,7/B,/G,F, | 
F,F,F,7/F,/F,D, | 
F,F,F,7/G,/G,F, | 
F,F,F,7/F,/F,F, | 
CCD7/D/CB, | 
CCC7/C/B,A, | 
B,B,B,7/C/CB, | 
B,B,B,7/B,/G,F, | 
F,F,F,7/F,/F,D, | 
F,F,F,7/G,/G,F, | 
F,F,F,7/F,/F,F, |]  



